!! 00000] TT[00
!!!OTL: Women shange niumao duo
!!!ARE: Asia, China,Jianxi
!! Ethnic Group: Han
!! Zhongguo Minge Xuan, S. 202
!!!SCT: C1111
!!!YEM: Copyright 1995, estate of Helmut Schaffrath.
**kern
*ICvox
*Ivox
!! Mixed meters:  3/4; 2/4
*M2/4
*k[b-]
*F:
{8gg
16dd
16cc
8cc
8cc
8ff
16dd
16ff
=1
4gg
4ff}
=2
{4gg
4ff
=3
8.gg
16ff
8.dd
16cc
=4
2cc}
=5
{8cc
16cc
16a
8cc
8dd
=6
4cc
8ff
8dd
=7
8.cc
16dd
4ff}
=8
{4cc
4ff
=9
8.gg
16ff
4dd
=10
2cc}
=11
{8dd
8ff
8dd
8ff
=12
8dd
8ff
8dd
8ff
=13
8dd
8ff
8dd
8ff}
=14
{8dd
8ff
8dd
8ff
=15
8dd
8ff
8dd
8ff
=16
8dd
8ff
8ff
8dd
=17
4gg
4ff}
=18
{4gg
4ff
=19
8.gg
16ff
4dd
=20
2cc}
=21
{8dd
8ff
8dd
8ff
=22
8dd
8ff
8dd
8ff
=23
8dd
8ff
8dd
8ff}
=24
{8dd
8ff
8dd
8ff
=25
*M3/4
8dd
8ff
8dd
8ff
8dd
8ff
=26
*M2/4
8dd
8dd
8.dd
16cc
=27
4cc}
{8r
8dd
=28
8ff
8dd
8ff
8dd
=29
8ff
8dd
8.cc
16dd
=30
2ff}
=31
{4ff
4ccc
=32
8dd
8ff
4dd
=33
2cc}
==
!!!AGN: Shange
!! Glissando
!!!ONB: ESAC (Essen Associative Code) Database: CHINA_056
!!!AMT: irregular
!!!AIN: vox
!!!EED: Helmut Schaffrath
!!!EEV: 1.0
*-
